svg/insta1.svg

<svg width="25" height="24" viewBox="0 0 25 24" fill="none" xmlns="http://www.w3.org/2000/svg">
<rect x="0.5" width="24" height="24" rx="4" fill="#2962FF"/>
<path d="M16.6689 4H9.33105C6.94287 4 5 5.94287 5 8.33105V15.669C5 18.0571 6.94287 20 9.33105 20H16.669C19.0571 20 21 18.0571 21 15.669V8.33105C21 5.94287 19.0571 4 16.6689 4V4ZM20.062 15.669C20.062 17.5399 18.5399 19.062 16.6689 19.062H9.33105C7.46008 19.062 5.93799 17.5399 5.93799 15.669V8.33105C5.93799 6.46008 7.46008 4.93799 9.33105 4.93799H16.669C18.5399 4.93799 20.062 6.46008 20.062 8.33105V15.669Z" fill="white"/>
<path d="M13 7.62512C10.5876 7.62512 8.62511 9.58764 8.62511 12C8.62511 14.4123 10.5876 16.3749 13 16.3749C15.4123 16.3749 17.3749 14.4123 17.3749 12C17.3749 9.58764 15.4123 7.62512 13 7.62512ZM13 15.4369C11.105 15.4369 9.5631 13.8951 9.5631 12C9.5631 10.105 11.105 8.56311 13 8.56311C14.8951 8.56311 16.4369 10.105 16.4369 12C16.4369 13.8951 14.8951 15.4369 13 15.4369Z" fill="white"/>
<path d="M17.4795 6.07141C16.7666 6.07141 16.1867 6.65137 16.1867 7.36413C16.1867 8.07702 16.7666 8.65698 17.4795 8.65698C18.1924 8.65698 18.7723 8.07702 18.7723 7.36413C18.7723 6.65124 18.1924 6.07141 17.4795 6.07141ZM17.4795 7.71887C17.2839 7.71887 17.1247 7.55969 17.1247 7.36413C17.1247 7.16845 17.2839 7.0094 17.4795 7.0094C17.6751 7.0094 17.8343 7.16845 17.8343 7.36413C17.8343 7.55969 17.6751 7.71887 17.4795 7.71887Z" fill="white"/>
</svg>

<?xml version="1.0" encoding="utf-8"?>
<!-- Generator: Adobe Illustrator 26.0.1, SVG Export Plug-In . SVG Version: 6.00 Build 0)  -->
<svg version="1.1" id="Layer_1" xmlns="http://www.w3.org/2000/svg" xmlns:xlink="http://www.w3.org/1999/xlink" x="0px" y="0px"
	 viewBox="0 0 25 24" style="enable-background:new 0 0 25 24;" xml:space="preserve">
<style type="text/css">
	.st0{fill:#00B96B;}
	.st1{fill:#FFFFFF;}
</style>
<path class="st0" d="M4.5,0h16c2.2,0,4,1.8,4,4v16c0,2.2-1.8,4-4,4h-16c-2.2,0-4-1.8-4-4V4C0.5,1.8,2.3,0,4.5,0z"/>
<path class="st1" d="M16.7,4H9.3C6.9,4,5,5.9,5,8.3v7.3C5,18.1,6.9,20,9.3,20h7.3c2.4,0,4.3-1.9,4.3-4.3V8.3C21,5.9,19.1,4,16.7,4
	L16.7,4z M20.1,15.7c0,1.9-1.5,3.4-3.4,3.4H9.3c-1.9,0-3.4-1.5-3.4-3.4V8.3c0-1.9,1.5-3.4,3.4-3.4h7.3c1.9,0,3.4,1.5,3.4,3.4V15.7z"
	/>
<path class="st1" d="M13,7.6c-2.4,0-4.4,2-4.4,4.4c0,2.4,2,4.4,4.4,4.4c2.4,0,4.4-2,4.4-4.4C17.4,9.6,15.4,7.6,13,7.6z M13,15.4
	c-1.9,0-3.4-1.5-3.4-3.4c0-1.9,1.5-3.4,3.4-3.4c1.9,0,3.4,1.5,3.4,3.4C16.4,13.9,14.9,15.4,13,15.4z"/>
<path class="st1" d="M17.5,6.1c-0.7,0-1.3,0.6-1.3,1.3c0,0.7,0.6,1.3,1.3,1.3s1.3-0.6,1.3-1.3S18.2,6.1,17.5,6.1z M17.5,7.7
	c-0.2,0-0.4-0.2-0.4-0.4c0-0.2,0.2-0.4,0.4-0.4s0.4,0.2,0.4,0.4C17.8,7.6,17.7,7.7,17.5,7.7z"/>
</svg>
